X: 32845
T: Port Na bPúcaí
R: waltz
M: 3/4
K: Fmajor
(c2 c{dc})=B|{GF}G4 GA|G2 (3G>FD|{D}E2 ({E}F2|F2) (3F>GA|
B4 {B}c2|A2 AG {F}A2|G4|(c2 c{dc})=B|{GF}G4 GA|G2 (3G>FD|
{D}E2 {E}F4|(G2 (3G)>(FE)|{E}F2 {FE}F4|(G2 (3G)>(FE)|1 {E}F2 {FE}F4:|2 {E}F ({FE}F2||F2)
GA|=B4|{=B}c3 {AB}c|d4 (3d>ef|{f}e4|{g}f2 ef|{a}g4|
(3e(g>e) {g}f(d|d2) GA|=B4|{=B}c3 {AB}c|d4 (3d>ef|{f}e4|{g}f2 ef|{a}g4|
(3e(g>e) {g}f(d|d2) (3d/d/de|(d2 (3d)>cA|{=BA}[B4D4|{=B}[c3E3] B|{GF} [G,4G4] G{G}A|
[G,2G2 (3G>FD|{D}[G,2E2] {FE}[G,4F4]|(G2 (3G)>(FE)|{E}[G,2F2] {FE}[G,4F4]|
(G2 (3G)>(FE)|{E}[G,2F2] {FE}[G,4F4]||

